!!!!SEGMENT: pl-kk--kk-i-2--006-001_anonim--missa-iii-kyrie.krn
!!!cenid: 16xx:1603
!!!COM: Anonim
!!!COM-rismID: pe30004985
!!!CDT:
!!!CNT:
!!!OPR: Missa III
!!!OTL: Kyrie
!!!OMV: 001
!!!PDT:
!!!AGN: Sacred; Mass
!!!SMS-siglum: PL-Kk
!!!SMS-shelfmark: Kk.I.2
!!!SMS-shelfwork: 006-001 M
!!!NIFC-rismSourceID: 300258022
!!!NIFC-islandoraID: pl-kk:750
!!!URL-pdf-islandora: https://repozytorium.nifc.pl/islandora/object/pl-kk%3A750/datastream/PDF/view
!!!URL-scan: https://polish.musicsources.pl/pl/lokalizacje/galeria/rekopisy/5828 @EN{Scan on Polish Music Sources Website} @PL{Skany w portalu Dziedzictwo Muzyki Polskiej w otwartym dostępie}
!!!ONB-nifc: Części mszy: Kyrie, Gloria, Credo, Sanctus, Agnus Dei; skany: C: 0015; A: 0115; T: 0219; B: 0318;
!!!AIN: 1 alto 1 bass 1 soprn 1 tenor
!!!key:
**kern	**text	**kern	**text	**kern	**text	**kern	**text
*part4	*part4	*part3	*part3	*part2	*part2	*part1	*part1
*staff4	*staff4	*staff3	*staff3	*staff2	*staff2	*staff1	*staff1
*I"BASVS	*	*I"TENOR	*	*I"ALTVS	*	*I"DISCANTVS	*
*I'B	*	*I'T	*	*I'A	*	*I'S	*
*Ibass	*	*Itenor	*	*Ialto	*	*Isoprn	*
*ICvox	*	*ICvox	*	*ICvox	*	*ICvox	*
*clefC4	*	*clefC3	*	*clefC3	*	*clefG2	*
*k[b-]	*	*k[b-]	*	*k[b-]	*	*k[b-]	*
*F:	*	*F:	*	*F:	*	*F:	*
*M2/1	*	*M2/1	*	*M2/1	*	*M2/1	*
*met(C|)	*	*met(C|)	*	*met(C|)	*	*met(C|)	*
=1-	=1-	=1-	=1-	=1-	=1-	=1-	=1-
!	!	!LO:TX:t=P:problem=kreska pseudotaktowa	!	!LO:TX:t=P:problem=kreska pseudotaktowa	!	!	!
00r	.	00r	.	1r	.	1f	Ky-
.	.	.	.	1c	Ky-	1cc	-ri-
=2-	=2-	=2-	=2-	=2-	=2-	=2-	=2-
!	!	!	!	!	!	!LO:TX:t=P:problem=kreska pseudotaktowa	!
.	.	.	.	1.f	-ri-	1cc	-e
.	.	.	.	.	.	1dd	e-
!	!	!	!	!LO:TX:t=P:problem=kreska pseudotaktowa	!	!	!
.	.	.	.	2g\	.	.	.
=3-	=3-	=3-	=3-	=3-	=3-	=3-	=3-
!LO:TX:t=P:problem=kreska pseudotaktowa	!	!	!	!	!	!	!
1r	.	1F	Ky-	2a\	-e	2.cc/	-l(e)y-
.	.	.	.	1f	.	.	.
.	.	.	.	.	.	4b-/	.
1C	Ky-	1c	-ri-	.	.	2a/	.
!	!	!	!	!	!	!LO:TX:t=P:problem=kreska pseudotaktowa	!
.	.	.	.	2e/	.	2g/	.
=4-	=4-	=4-	=4-	=4-	=4-	=4-	=4-
!	!	!LO:TX:t=P:problem=kreska pseudotaktowa	!	!LO:TX:t=P:problem=kreska pseudotaktowa	!	!	!
1.F	-ri-	1c	-e	1f	.	2a/	.
.	.	.	.	.	.	1cc	.
.	.	1d	.	1r	.	.	.
!LO:TX:t=P:problem=kreska pseudotaktowa	!	!	!	!	!	!	!
2G/	.	.	.	.	.	2b-/	.
=5-	=5-	=5-	=5-	=5-	=5-	=5-	=5-
!	!	!	!	!	!	!LO:TX:t=P:problem=kreska pseudotaktowa	!
1A	-e	2.c/	.	2r	.	0cc	-ſon
!	!	!	!	!LO:TX:t=P:problem=kreska pseudotaktowa	!	!	!
.	.	.	.	2F/	.	.	.
.	.	4B-/	.	.	.	.	.
2F/	.	4A/	.	2c/	.	.	.
.	.	4G/	.	.	.	.	.
2A/	.	1c\	e-	2c/	.	.	.
=6-	=6-	=6-	=6-	=6-	=6-	=6-	=6-
!LO:TX:t=P:problem=kreska pseudotaktowa	!	!	!	!	!	!	!
1G	.	.	.	1d	.	2r	.
*	*	*	*	*	*	*	*ij
.	.	2B-/	-ley-	.	.	2g/	Ky-
!	!	!LO:TX:t=P:problem=kreska pseudotaktowa	!	!	!	!	!
2r	.	1c	-ſon	2c/	.	1.cc	.
2F/	.	.	.	1f\	.	.	.
=7-	=7-	=7-	=7-	=7-	=7-	=7-	=7-
2c\	.	1r	.	.	.	.	.
!LO:TX:t=P:problem=kreska pseudotaktowa	!	!	!	!LO:TX:t=P:problem=kreska pseudotaktowa	!	!LO:TX:t=P:problem=kreska pseudotaktowa	!
2c\	.	.	.	2e/	.	2cc\	-ri-
*	*	*	*ij	*lig	*	*	*
1d	.	2r	.	1f	.	2a/	-e
.	.	1f\	Ky-	.	.	2b-/	.
=8-	=8-	=8-	=8-	=8-	=8-	=8-	=8-
2.c\	.	.	.	1g	.	2cc/	.
*	*	*	*	*	*	*custos:cc	*
!	!	!	!	!	!	!LO:TX:t=P:problem=kreska pseudotaktowa	!
!	!	!LO:TX:t=P:problem=kreska pseudotaktowa	!	!	!	!	!
.	.	2e\	.	.	.	2g/	.
4B-/	.	.	.	.	.	.	.
*	*	*	*	*Xlig	*	*	*
!	!	!	!	!LO:TX:t=P:problem=kreska pseudotaktowa	!	!LO:LB:g=original	!
4A/	.	2f\	-ri-	1f	.	1cc	.
4G/	.	.	.	.	.	.	.
!LO:TX:t=P:problem=kreska pseudotaktowa	!	!	!	!	!	!	!
2A/	.	2F/	-e	.	.	.	.
=9-	=9-	=9-	=9-	=9-	=9-	=9-	=9-
*	*	*	*	*	*	*lig	*
2F/	.	2c/	e-	2r	.	1a	e-
2A/	.	2c/	-ley-	1c	.	.	.
1G	.	1d	.	.	.	1b-	.
*	*	*	*	*custos:c	*	*	*
!	!	!	!	!LO:TX:t=P:problem=kreska pseudotaktowa	!	!	!
.	.	.	.	2B-/	.	.	.
*	*	*	*	*	*	*Xlig	*
!	!	!	!	!LO:LB:g=original	!	!	!
=10-	=10-	=10-	=10-	=10-	=10-	=10-	=10-
*custos:C	*	*custos:c	*	*	*	*	*
!LO:TX:t=P:problem=kreska pseudotaktowa	!	!	!	!	!	!	!
2r	.	[0cl;	-ſon	2.c/	.	2g/	.
*	*	*	*Xij	*	*	*	*
!LO:LB:g=original	!	!	!	!	!	!LO:TX:t=P:problem=kreska pseudotaktowa	!
2C/	.	.	.	.	.	2g/	-l(e)y-
.	.	.	.	4B-/	.	.	.
2F/	.	.	.	4A/	.	2a/	.
.	.	.	.	4G/	.	.	.
2E/	.	.	.	2.g\	e-	2.cc\	.
=11-	=11-	=11-	=11-	=11-	=11-	=11-	=11-
1F	e-	0c_	.	.	.	.	.
.	.	.	.	4f\	.	4b-/	.
.	.	.	.	1f	-ley-	2a/	.
1C	-ley-	.	.	.	.	1g	.
.	.	.	.	2e\	.	.	.
=12-	=12-	=12-	=12-	=12-	=12-	=12-	=12-
0Fl\	-ſon	0c]	.	0fl;	-ſon	0al\	-ſon
*	*	*	*	*	*	*	*Xij
!	!	!LO:LB:g=original	!	!	!	!	!
=13||	=13||	=13||	=13||	=13||	=13||	=13||	=13||
*M2/1	*	*M2/1	*	*M2/1	*	*M2/1	*
*met(C|)	*	*met(C|)	*	*met(C|)	*	*met(C|)	*
!	!	!	!	!	!	!LO:TX:t=P:problem=kreska pseudotaktowa	!
00r	.	00r	.	1.f	Chri-	1r	.
.	.	.	.	.	.	1.cc	Chri-
!	!	!	!	!LO:TX:t=P:problem=kreska pseudotaktowa	!	!	!
.	.	.	.	2e\	.	.	.
=14-	=14-	=14-	=14-	=14-	=14-	=14-	=14-
.	.	.	.	2f\	-ſte	.	.
.	.	.	.	2g\	.	2b-/	.
.	.	.	.	2.f\	.	2cc/	-ſte
!	!	!	!	!	!	!LO:TX:t=P:problem=kreska pseudotaktowa	!
.	.	.	.	.	.	2dd\	.
!	!	!	!	!LO:TX:t=P:problem=kreska pseudotaktowa	!	!	!
.	.	.	.	4d/	.	.	.
=15-	=15-	=15-	=15-	=15-	=15-	=15-	=15-
!	!	!LO:TX:t=P:problem=kreska pseudotaktowa	!	!	!	!	!
2r	.	1r	.	2e\	.	2.cc/	.
1F	Chri-	.	.	2f\	.	.	.
.	.	.	.	.	.	4b-/	.
.	.	2r	.	2c/	.	2a/	.
!LO:TX:t=P:problem=kreska pseudotaktowa	!	!	!	!LO:TX:t=P:problem=kreska pseudotaktowa	!	!LO:TX:t=P:problem=kreska pseudotaktowa	!
2E/	.	1c\	Chri-	2e\	.	2g/	.
=16-	=16-	=16-	=16-	=16-	=16-	=16-	=16-
2F/	ſte	.	.	2.d\	.	2a/	.
!	!	!LO:TX:t=P:problem=kreska pseudotaktowa	!	!	!	!	!
2G/	.	2B-/	.	.	.	2b-/	e-
.	.	.	.	4e\	.	.	.
2F/	.	2c/	-ſte	1.f	.	2a/	-ley-
2B-\	.	2d/	.	.	.	2f/	.
=17-	=17-	=17-	=17-	=17-	=17-	=17-	=17-
!	!	!	!	!	!	!LO:TX:t=P:problem=kreska pseudotaktowa	!
2A/	.	2c/	.	.	.	0cc	-ſon
!LO:TX:t=P:problem=kreska pseudotaktowa	!	!	!	!LO:TX:t=P:problem=kreska pseudotaktowa	!	!	!
2F/	.	1f	e-	2f\	.	.	.
2.c\	.	.	.	1g	.	.	.
!	!	!LO:TX:t=P:problem=kreska pseudotaktowa	!	!	!	!	!
.	.	2e\	-ley-	.	.	.	.
4B-\	.	.	.	.	.	.	.
=18-	=18-	=18-	=18-	=18-	=18-	=18-	=18-
*	*	*	*	*	*	*custos:b	*
2A/	.	2f\	-ſon	2c/	.	1r	.
*	*	*	*ij	*	*	*	*
2B-/	.	1d	Chri-	1f	.	.	.
*	*	*	*	*	*	*	*ij
!LO:TX:t=P:problem=kreska pseudotaktowa	!	!	!	!	!	!LO:LB:g=original	!
1G	.	.	.	.	.	1.b-	Chri-
!	!	!	!	!LO:TX:t=P:problem=kreska pseudotaktowa	!	!	!
.	.	4c/	.	2e\	.	.	.
!	!	!LO:TX:t=P:problem=kreska pseudotaktowa	!	!	!	!	!
.	.	4B-/	.	.	.	.	.
=19-	=19-	=19-	=19-	=19-	=19-	=19-	=19-
2.F/	.	2d\	-ſte	2f\	.	.	.
!	!	!	!	!	!	!LO:TX:t=P:problem=kreska pseudotaktowa	!
.	.	1c	e-	1f	.	2a/	.
4G/	.	.	.	.	.	.	.
2A/	.	.	.	.	.	2cc\	-ſte
*	*	*	*	*custos:f	*	*	*
!LO:TX:t=P:problem=kreska pseudotaktowa	!	!	!	!LO:TX:t=P:problem=kreska pseudotaktowa	!	!	!
2B-/	.	2B-/	-ley-	2d/	.	2dd\	.
!	!	!	!	!LO:LB:g=original	!	!	!
=20-	=20-	=20-	=20-	=20-	=20-	=20-	=20-
!	!	!LO:TX:t=P:problem=kreska pseudotaktowa	!	!	!	!	!
2F/	.	0c	-ſon	2f\	.	2.cc\	.
*	*	*	*Xij	*	*	*	*
*custos:F	*	*	*	*	*	*	*
!LO:TX:t=P:problem=kreska pseudotaktowa	!	!	!	!	!	!	!
2E/	.	.	.	2.g\	.	.	.
.	.	.	.	.	.	4b-/	.
!LO:LB:g=original	!	!	!	!	!	!LO:TX:t=P:problem=kreska pseudotaktowa	!
4F/	.	.	.	.	.	1a	.
4G/	.	.	.	4f\	.	.	.
4A/	.	.	.	1f\	.	.	.
4B-/	.	.	.	.	.	.	.
=21-	=21-	=21-	=21-	=21-	=21-	=21-	=21-
!LO:TX:t=P:problem=kreska pseudotaktowa	!	!	!	!	!	!	!
1c	.	2r	.	.	.	2g/	.
!	!	!	!	!LO:TX:t=P:problem=kreska pseudotaktowa	!	!	!
.	.	1c	Chri-	2e\	.	2g/	e-
2F/	.	.	.	2f\	.	2a/	-ley-
!	!	!LO:TX:t=P:problem=kreska pseudotaktowa	!	!	!	!	!
2G/	.	2B-/	-ſte	2d\	.	2b-/	.
=22-	=22-	=22-	=22-	=22-	=22-	=22-	=22-
2A/	.	2c/	e-	2c/	.	[0al\	-ſon
*	*	*	*	*	*	*	*Xij
2D/	.	2d/	-ley-	2f\	.	.	.
1A	e-	1c	.	2e\	.	.	.
.	.	.	.	2c/	e-	.	.
=23-	=23-	=23-	=23-	=23-	=23-	=23-	=23-
*	*	*custos:f	*	*	*	*	*
2.F/	-ley-	0cl;	-ſon	1f	-ley-	0a]	.
4G/	.	.	.	.	.	.	.
1Al;	-ſon	.	.	1el;	-ſon	.	.
!	!	!LO:LB:g=original	!	!	!	!	!
=24||	=24||	=24||	=24||	=24||	=24||	=24||	=24||
*M2/1	*	*M2/1	*	*M2/1	*	*M2/1	*
*met(C|)	*	*met(C|)	*	*met(C|)	*	*met(C|)	*
!LO:TX:a:t=2	!	!	!	!	!	!	!
!LO:TX:t=P:problem=kreska pseudotaktowa	!	!	!	!LO:TX:t=P:problem=kreska pseudotaktowa	!	!	!
0r	.	00r	.	1r	.	1.cc	Ky-
.	.	.	.	1.f	Ky-	.	.
!	!	!	!	!	!	!LO:TX:t=P:problem=kreska pseudotaktowa	!
.	.	.	.	.	.	2b-/	-ri-
=25-	=25-	=25-	=25-	=25-	=25-	=25-	=25-
1F	Ky-	.	.	.	.	2.a/	-e
.	.	.	.	2e\	.	.	.
.	.	.	.	.	.	4g/	.
2G/	-ri-	.	.	2d\	.	2b-/	e-
2A/	-e	.	.	2c\	.	1a/	-ley-
=26-	=26-	=26-	=26-	=26-	=26-	=26-	=26-
!	!	!LO:TX:t=P:problem=kreska pseudotaktowa	!	!	!	!	!
2F/	.	1r	.	1d	-ri-	.	.
!LO:TX:t=P:problem=kreska pseudotaktowa	!	!	!	!	!	!	!
2G/	.	.	.	.	.	4g/	.
.	.	.	.	.	.	4f/	.
!	!	!	!	!LO:TX:t=P:problem=kreska pseudotaktowa	!	!	!
2A/	.	2r	.	1c	-e	2e/	.
2F/	.	1f\	Ky-	.	.	2f/	.
=27-	=27-	=27-	=27-	=27-	=27-	=27-	=27-
1c	.	.	.	2r	.	2.g/	.
!	!	!LO:TX:t=P:problem=kreska pseudotaktowa	!	!	!	!	!
.	.	2e\	-ri-	1g	.	.	.
!	!	!	!	!	!	!LO:TX:t=P:problem=kreska pseudotaktowa	!
.	.	.	.	.	.	4a/	.
2B-/	.	2d\	-e	.	.	2b-/	.
!LO:TX:t=P:problem=kreska pseudotaktowa	!	!	!	!LO:TX:t=P:problem=kreska pseudotaktowa	!	!	!
2A/	.	2c\	e-	2f\	.	1cc\	.
=28-	=28-	=28-	=28-	=28-	=28-	=28-	=28-
1G	.	1d	-ley-	2g\	.	.	.
.	.	.	.	2g\	.	2b-/	.
*	*	*	*	*	*	*custos:c	*
!	!	!	!	!	!	!LO:TX:t=P:problem=kreska pseudotaktowa	!
!	!	!LO:TX:t=P:problem=kreska pseudotaktowa	!	!	!	!	!
2C/	.	1c	-ſon	2.g\	.	1cc	-ſon
1c\	.	.	.	.	.	.	.
*	*	*	*	*custos:e	*	*	*
!	!	!	!	!LO:TX:t=P:problem=kreska pseudotaktowa	!	!	!
.	.	.	.	4f\	.	.	.
!	!	!	!	!LO:LB:g=original	!	!LO:LB:g=original	!
=29-	=29-	=29-	=29-	=29-	=29-	=29-	=29-
*	*	*	*	*	*	*	*ij
.	.	0r	.	2e\	.	1.cc	Ky-
2B-\	.	.	.	2d\	.	.	.
2A/	.	.	.	2e\	.	.	.
*custos:c	*	*	*	*	*	*	*
!LO:TX:t=P:problem=kreska pseudotaktowa	!	!	!	!	!	!LO:TX:t=P:problem=kreska pseudotaktowa	!
2G/	.	.	.	1g\	.	2b-/	-ri-
!LO:LB:g=original	!	!	!	!	!	!	!
=30-	=30-	=30-	=30-	=30-	=30-	=30-	=30-
1c	.	2r	.	.	.	2a/	-e
*	*	*	*ij	*	*	*	*
!	!	!	!	!LO:TX:t=P:problem=kreska pseudotaktowa	!	!	!
.	.	1c	Ky-	2e\	.	2g/	.
!LO:TX:t=P:problem=kreska pseudotaktowa	!	!	!	!	!	!	!
0F	.	.	.	2f\	.	2a/	.
!	!	!LO:TX:t=P:problem=kreska pseudotaktowa	!	!	!	!LO:TX:t=P:problem=kreska pseudotaktowa	!
.	.	2B-/	-ri-	4e\	.	2b-/	.
.	.	.	.	4d\	.	.	.
=31-	=31-	=31-	=31-	=31-	=31-	=31-	=31-
.	.	2A/	-e	2c/	.	2cc/	.
.	.	2F/	e-	1f	.	2a/	.
1r	.	1c	-ley-	.	.	2g/	.
!	!	!	!	!LO:TX:t=P:problem=kreska pseudotaktowa	!	!	!
.	.	.	.	2e\	.	1cc\	e-
=32-	=32-	=32-	=32-	=32-	=32-	=32-	=32-
!	!	!LO:TX:t=P:problem=kreska pseudotaktowa	!	!	!	!	!
1.c	.	1F	-ſon	1f	.	.	.
!	!	!	!	!	!	!LO:TX:t=P:problem=kreska pseudotaktowa	!
.	.	.	.	.	.	2b-/	-ley-
.	.	1.c	Ky-	2.e\	.	2a/	.
2B-/	.	.	.	.	.	2g/	.
!	!	!	!	!LO:TX:t=P:problem=kreska pseudotaktowa	!	!	!
.	.	.	.	4d\	.	.	.
=33-	=33-	=33-	=33-	=33-	=33-	=33-	=33-
2A/	.	.	.	4c\	.	2f/	.
.	.	.	.	4d\	.	.	.
!LO:TX:t=P:problem=kreska pseudotaktowa	!	!	!	!	!	!LO:TX:t=P:problem=kreska pseudotaktowa	!
2G/	.	2B-/	.	4e\	.	2g/	.
.	.	.	.	8d\	.	.	.
!	!	!	!	!LO:TX:t=P:problem=kreska pseudotaktowa	!	!	!
.	.	.	.	8e\	.	.	.
2F/	.	2A/	-ri-	4f\	.	2a/	.
.	.	.	.	4d/	.	.	.
2E/	.	2G/	-e	2.g\	e-	2cc\	.
=34-	=34-	=34-	=34-	=34-	=34-	=34-	=34-
1F	e-	2.A/	e-	.	.	2a/	.
.	.	.	.	4f\	.	.	.
.	.	.	.	1f	-ley-	2f/	.
.	.	4B-/	.	.	.	.	.
1C	-ley-	1G	-ley-	.	.	1g	.
.	.	.	.	2e\	.	.	.
=35-	=35-	=35-	=35-	=35-	=35-	=35-	=35-
0Fl\	-ſon	0Fl	-ſon	0fl;	-ſon	0al;\	-ſon
*	*	*Xij	*	*	*	*	*Xij
==	==	==	==	==	==	==	==
*-	*-	*-	*-	*-	*-	*-	*-
!!!system-decoration: [(*)]
!!!RDF**kern: < = below
!!!RDF**kern: l = terminal long
!!!ENC: Marta Opryszak
!!!END: 2022-01-04
!!!ENC: Andrzej Kubiczek
!!!END: 2022-01-06
